**kern	**kern
*staff2	*staff1
*clefF4	*clefG2
*k[b-e-a-d-g-c-]	*k[b-e-a-d-g-c-]
*M2/4	*M2/4
*e-:	*e-:
=-	=-
32r	(32b-
=185	=185
*^	*
8F 8A-	8BB-L	16.aa-LL
.	.	32ffk
4F 4A-	8C-J	16.dd)
.	.	(32ddJJk
.	8BB-L	16.aa-LL
.	.	32ffk
8BB- 8F	8AA-J	16.dd)
.	.	(32ddJJk
=186	=186	=186
8BB- 8E-	8GG-	16.ee-LL
.	.	32ffk
8r	8r	16.gg-
.	.	32aa-JJk
4r	4r	8bb-)
.	.	16r
.	.	32r
.	.	(32B-
=187	=187	=187
8F 8A-	8BB-L	16.a-LL
.	.	32fk
4F 4A-	8C-J	16.d)
.	.	(32dJJk
.	8BB-L	16.a-LL
.	.	32fk
8BB- 8F	8AA-J	16.d)
.	.	(32dJJk
=188	=188	=188
8BB- 8E-	8GG-	16.e-LL
.	.	32fk
8r	8r	16.g-
.	.	32a-JJk
4r	4r	8b-L)
.	.	([8bb-J
=189	=189	=189
8.e-L	8.c-L	16bb-LL]
.	.	16aa-
.	.	16bb-
16d-Jk	16B-Jk	16ccc-JJ)
8c-L	4A-	(24ccc-LL
.	.	24bb-
.	.	24aa-J
[8fJ	.	24gg-L
.	.	24ff
.	.	24ee-JJ)
=190	=190	=190
*	*	*^
2f]	2B-	(4ee-	16r
.	.	.	(16a-LL
.	.	.	16b-
.	.	.	16cc-JJ
.	.	4dd)	16b-LL
.	.	.	16a-
.	.	.	16g
.	.	.	16a-JJ)
*	*	*v	*v
*v	*v	*
=191	=191
8c- 8e-	16r
.	(16g-LL 16ee-
8r	16f 16dd
.	16g-JJ) 16ee-
8A- 8e-	16r
.	(16a-LL 16cc-
8r	16g 16b-
.	16a-JJ) 16cc-
=192	=192
8B- 8e-	16r
.	(16g-LL 16b-
8r	16f 16a
.	16g-JJ) 16b-
8BB- 8B-	16r
.	(16dLL 16f
8r	16f 16a-
.	16A-JJ) 16d
=193	=193
(8.CC-L 8.C-	(4A- 4d
32BB-LL	.
32AA-JJJ	.
(8.GGG-L) 8.GG-	8G-L) 8B- 8e-
.	([8bb-J
32FFLL	.
32EE-JJJ	.
=	=
*-	*-
